X:1
T:Carmen super Pange lingua
T:Carmen super Pange lingua
T:Adrien Petit Coclico
C:Adrien Petit Coclico
%%score [ 1 2 3 ]
L:1/8
Q:1/4=120
M:2/2
K:C
V:1 alto1 nm="Soprano"
V:2 tenor nm="Tenor"
V:3 tenor nm="Tenor"
V:1
 z8 | z8 | z8 | E4 F4 | E4 D2 G2- | G2 F2 E2 G2 | A2 c4 B2 | c4 c4 | d4 c2 F2 |[M:3/4] F6 | G6 | %11
 F6 | E6 | D6 | F6 | E6 |[M:2/4] D4 |[M:2/2] C4 D4 | A4 c4 | G4 G3 F | ED E2 F2 A2- | A2 G2 B2 e2 | %22
 e2 A4 A2- | A2 D2 E2 C2- | C2 E4 G2- | G2 E2 D2 G2 | FGAB cdBc | e2 B2 A2 c2 | c2 G4 G2 | %29
 GF F2- FE E2- | E2 D2 E2 G2 | A2 F2 G3 A | B2 c4 BA | G8- | G8- | G8 |] %36
V:2
 z8 | z8 | E,4 F,4 | E,4 D,4 | G,4 G,4 | A,4 C4 | C4 D4 | C4 C4 | B,4 A,4 |[M:3/4] C6 | B,6 | A,6 | %12
w: ||Pan- ge|lin- gua|glo- ri-|o- sum|cor- *|po- ris|my- ste-|ri-|um|_|
 G,6 | G,6 | A,6 | C6 |[M:2/4] B,4 |[M:2/2] A,4 G,4 | A,4 A,4 | C4 G,4 | G,4 F,4 | E,4 G,4 | %22
w: |san-|gui-|nis-|que|pre- ti-|o- si|quem in|mu- di|pre- ti-|
 A,4 A,4 | D,4 C,4 | E,4 G,4 | E,4 G,4 | A,4 A,4 | G,4 A,4 | C4 G,4 | A,4 G,4 | F,4 E,4 | D,4 E,4 | %32
w: * um|_ fruc-|tus ven-|tri ge-|ne- ro-|si rex|ef- fu-|dit _|gen- ti-||
 E,8- | E,8- | E,8- | E,8 |] %36
w: um.|_|||
V:3
 B,8 | B,4 C4 | B,4 A,2 D2- | D2 C2 D3 C | B,A,G,F, G,2 E,2 | D,E,F,G, A,2 E,2 | F,2 A,2 G,4 | %7
 C,2 C2 A,4 | G,4 C,2 F,2 |[M:3/4] F,3 G, A,2 | E,3 F, G,2 | D,3 E, F,2 | C,3 D, E,F, | %13
 G,3 A, B,2 | C2 F,2 D,2 | C,3 D, E,F, |[M:2/4] G,2 D,E, |[M:2/2] F,G,A,C B,A, B,2 | A,2 C4 A,2 | %19
 E4 E,3 F, | G,A, B,2 C2 D2 | E4 E4 | A,2 F,4 A,2 | A,2 B,2 C2 G,2- | G,2 B,2- B,C D2 | %25
 E2 B,2- B,A, B,2 | C2 E4 DC | B,2 D2 C2 A,2 | A,B, C2 B,A, G,2 | C4 B,4 | A,4 G,4 | %31
"^Editorial notes:  \n\n1) source: Compendium Musicum. Mont.et Neub. Nürnberg 1552.\n2) original note values have been halved\n \n" F,4 E,3 F, | %32
 G,2 C,D, E,F,G,A, | B,2 C4 B,A, | B,2 C2 B,4- | B,8 |] %36

